X: 2
T: Miss Galvin's
R: hornpipe
M: 4/4
L: 1/8
K: Dmaj
gfe | d2 cA GEFE | D2 FA dAFA | d2 cA GEED | (3Bcd ef g2 fe |
| d2 cA GEFE | D2 FA dAFA| d2 cA GEED | (3Bcd ec d3 g |
| fgaf d3 g | fgaf g2 ag | fgaf d=cAB =cdef (3gag fe |
| fgaf d3 g | fgaf g2 ag | fAeA d=cAB | =cdef g2 fe |
